!!!OTL: Hubertuslied (302), S. 624f
!!!id: T0492
**kern
*clefG2
*k[]
*G:
{8d
=1
4g
8b
8a
8g
8a
=2
4b
8a
4g}
=3
{8a
=4
8b
8dd
8b
8a
8b
8a
=5
2g}
8r
=6
{16b
16cc
=7
8dd
8dd
8dd
8b
8a
8b
=8
4cc
8b
4a
8r
=9
8b
8dd
8b
8a
8cc
8b
=10
4.g
4.b
=11
2a
8r
=12
16bbbb
16gggg}
{16b
16cc
=13
8dd
8dd
8dd
8b
8a
8b
=14
4cc
8b
4a}
=15
{8a
=16
8b
8dd
8b
8a
8b
8a
=17
2g}
8r
==
*-
!!!minrhy: 16
!!!meters: 6/8 ]  ZZ[5
!!!cut: Hubertuslied (302), S. 624f
!!!reg: Luxemburg
!!!trd: Singendes Volk, Esch-Alzette 1937 posth.
!!!rhy1: X_  X__X_X_X_X_  X__X_X__   (x2)
!!!rhy2: X_  X_X_X_X_X_X_  X___0
!!!key: T0492  16  G 6/8 ]  ZZ[5
!!!mod: PENTATONIK DUR ?]  AMBITUS[8
!!!kad: 11221
!!!akz: 1231_3211_5342321322_5342_3211_
!!!fot: 'a__b__as"as"b__
!!!for: 'a__b__bw_bw_b__
!!!fok: '^a_^d_Md_^d_^d_
!! PHRAS[AUFTAKTIG]
!!!fkt: geistliches Lied, J&auml;gerlied
!!!bem1: mitgeteilt: hhh Heinrich Godefroid (Lehrer),
!!!bem2: von dessen Mutter erlernt
!! THILL, Mathias
!! PR[28] 2K[9] 2G[26] 3K[2] 3G[2] 4A[0] 4Ü[0] 5A[0] 6K[0] 6G[0]
!! 7K[0] 7G[0] 8A[0] MEHR[0] SI[38] ABS[47] SR[34] SP[4]
!! ST[12] 2k[4] 2g[23] 3k[2] 3g[0] 4d[4] 4ü[0] 5d[0] 6k[0] 6g[0]
!! 7k[0] 7g[0] 8d[0] mehr[0] si[34] dm[+4] sr[28] sp[6]
!! 1F[8] 2F[60] 3F[20] 4F[4] LF[0] 2P[0] 3P[8] 4P[0] TRI[0] DF[5] AB[50]
!! TF[0] U3K[0] U3[0] U4[0] U4Ü[0] U5[0] U6K[0] U6[0] U7K[0] U7[0]
!! N1[21] N2K[0] N2[38] N3K[0] N3[27] N4[8] N4Ü[0] N5[6] N6K[0] N6[0]
!!!n7k: 0] N7[0] O1[0] O2K[0] O2[0] O3K[0] O3[0] HÖ[0
!!!RNB: symbol: &auml;      = a umlaut  (UTF-8: Å„)
